X: 13097
T: Fire Away, You Devil You
R: slip jig
M: 9/8
K: Gmajor
|:Bcd fed Bcd|~A3 EFG ~A3|Bcd fed Bcd|~A3 dcd gfg:|
|:Bcd efg agf|gz2 efg abg|fed efg afa|~g3 dcd ~G3:|

